X:1

T:Barndance Polka

M:C|

L:1/8

R:Polka

S:Art Stamper

N:From a transcription by John Lamancusa, by permission. See http://www.mne.psu.edu/lamancusa/tunes.htm

Z:AK/Fiddler’s Companion

K:C

B2 | c2E2E2 EF | G2E2E2 EG | FEDC D2 DE | FEDE D2B2 |

c2E2E2 EF | G2E2E3(D | D)EGA BcdB | c2c2c2B2 | c2E2E2 EF |

G2E2E2 EG | FEDB, G,B,DE | FEDB, G,B,DB | c2E2E2 EF |

G2E2E3(D | D)EGA BcdB | c2c2c3 (D ||

K:G

D)EDC B,CDE | G2A2B3c | d2 (3dcB A2 (3ABc | e2d2B3 (D |

D)EDC B,CDE | G2A2 B3c | d2 cB AG F2 | G4G4 | DEDC B,CDE |

G2 Bc d3(D | D)FAd cAFD | G2 Bd g4 | DEDC B,CDE | G2 Bc d3(D |

D)F A2 dAFD | G2 BA G4 ||

                       

BARNDOOR JIG, THE. AKA and see "The Barn Door (Jig)." Irish, Double Jig. A Major/Mixolydian. Standard tuning. AABB. O'Neill (Music of Ireland: 1850 Melodies), 1903/1979; No. 939, pg. 174.

